X:1
T:Title
%%score ( 1 2 ) 3
L:1/8
Q:1/4=112
M:4/4
K:C
V:1 treble nm="Grand Piano, Unnamed-000"
V:2 treble 
V:3 bass nm="Choir Pad, Aber, SM"
V:1
 [Ec]2 [DB]2 [EA]2 [EG]2 | [DF]2 [CE]6 | E2 [DG]2 [CF]2 [B,E]2 | D2 [B,E]6 | E2 E2 E2 [E^F]2 | %5
w: By~William~Henry~Monk,~1875 * * *|||||
 [E^G]2 [EA]2 [DB]2 [Cc]2 | [CA]2 [Cc]2 BA E2 | [D^G]2 [CA]6- | [CA]2 z2 z4 |] %9
w: ||||
V:2
 x8 | x8 | x8 | x8 | x8 | x8 | z4 D2 z2 | x8 | x8 |] %9
V:3
 [A,,A,]2 [B,,^G,]2 [C,A,]2 [D,A,]2 | [D,B,]2 [A,C]6 | C2 [B,D]2 A,2 [G,B,]2 | [F,A,]2 [E,^G,]6 | %4
 E,2 [E,^F,]2 [E,^G,]2 [E,A,]2 | [D,B,]2 [C,A,]2 [B,,^G,]2 [A,,A,]2 | %6
 [F,A,]2 [E,G,]2 [D,F,]2 [C,A,]2 | [B,,E,]2 [A,,E,]6- | [A,,E,]2 z2 z4 |] %9

